public/images/facilities/railway_shenzhen.svg

<svg xmlns="http://www.w3.org/2000/svg" xmlns:xlink="http://www.w3.org/1999/xlink" width="20" height="20" viewBox="0 0 80 80" fill="none"><g><rect  x="0" y="0" width="80" height="80" rx="8"    fill="#666666" ></rect><path d="M54 63.2487C59.3379 60.1668 63.5098 55.4097 65.8686 49.7152C68.2274 44.0207 68.6412 37.7069 67.046 31.7532C65.4507 25.7995 61.9355 20.5385 57.0455 16.7862C52.1555 13.034 46.164 11.0001 40.0003 11C33.8366 10.9999 27.845 13.0337 22.955 16.7859C18.0649 20.5381 14.5496 25.799 12.9542 31.7526C11.3588 37.7063 11.7725 44.0201 14.1312 49.7147C16.4898 55.4093 20.6616 60.1664 25.9995 63.2484L29.4996 57.1863C25.4962 54.8748 22.3674 51.3069 20.5984 47.036C18.8294 42.7651 18.5191 38.0297 19.7156 33.5645C20.9122 29.0992 23.5487 25.1535 27.2162 22.3394C30.8838 19.5253 35.3774 18 40.0002 18C44.623 18 49.1166 19.5255 52.7841 22.3397C56.4516 25.1539 59.088 29.0996 60.2845 33.5649C61.4809 38.0302 61.1705 42.7655 59.4014 47.0364C57.6324 51.3073 54.5035 54.8751 50.5 57.1865L54 63.2487Z"   fill="#FFFFFF" ></path><path     fill="#FFFFFF"  d="M21 68L59 68L49.5062 66.8831C44.8216 66.332 40.7294 63.4589 38.62 59.24L37 56L43 56L41.38 59.24C39.2706 63.4589 35.1784 66.332 30.4938 66.8831L21 68Z"></path><path     fill="#FFFFFF"  d="M34 34L46 34C48.7614 34 51 36.2386 51 39L51 40C51 42.7614 48.7614 45 46 45L43 45L43 68L59 68L59 72L21 72L21 68L37 68L37 45L34 45C31.2386 45 29 42.7614 29 40L29 39C29 36.2386 31.2386 34 34 34Z"></path><rect x="34" y="8" width="12" height="4"   fill="#FFFFFF" ></rect></g></svg>

<svg xmlns="http://www.w3.org/2000/svg" width="20" height="20" fill="none" viewBox="0 0 80 80">
  <rect width="80" height="80" fill="#666" rx="8"/>
  <path fill="#fff" d="M54 63.249a28 28 0 1 0-28 0l3.5-6.063a21 21 0 1 1 21 0z"/>
  <path fill="#fff" d="M21 68h38l-9.494-1.117A14 14 0 0 1 38.62 59.24L37 56h6l-1.62 3.24a14 14 0 0 1-10.886 7.643z"/>
  <path fill="#fff" d="M34 34h12a5 5 0 0 1 5 5v1a5 5 0 0 1-5 5h-3v23h16v4H21v-4h16V45h-3a5 5 0 0 1-5-5v-1a5 5 0 0 1 5-5M34 8h12v4H34z"/>
</svg>
